src/main/webapp/img/lib/mscae/MachineLearningServicePlans.svg

<?xml version="1.0" encoding="utf-8"?>
<svg version="1.1" id="Layer_1" xmlns="http://www.w3.org/2000/svg" xmlns:xlink="http://www.w3.org/1999/xlink" x="0px" y="0px"
	 width="24px" height="24px" viewBox="0 0 24 24" enable-background="new 0 0 24 24" xml:space="preserve">
<g>
	<path fill="#A0A1A2" d="M17.148,6.148l0.008,0.008C16.948,6.052,16.729,6,16.5,6c-0.208,0-0.403,0.039-0.586,0.117
		s-0.341,0.185-0.477,0.32c-0.136,0.136-0.242,0.294-0.32,0.477C15.039,7.097,15,7.292,15,7.5s0.039,0.404,0.117,0.586
		c0.078,0.183,0.185,0.341,0.32,0.477c0.136,0.136,0.294,0.242,0.477,0.32S16.292,9,16.5,9s0.403-0.039,0.586-0.117
		s0.341-0.185,0.477-0.32c0.136-0.135,0.242-0.294,0.32-0.477C17.961,7.904,18,7.708,18,7.5c0-0.229-0.052-0.448-0.156-0.656
		l0.008,0.008l2.875-2.875l-0.703-0.703L17.148,6.148z M16.852,7.852C16.753,7.951,16.636,8,16.5,8s-0.253-0.049-0.352-0.148
		C16.05,7.753,16,7.636,16,7.5c0-0.135,0.05-0.252,0.148-0.352C16.247,7.05,16.364,7,16.5,7s0.253,0.05,0.352,0.148
		C16.95,7.248,17,7.365,17,7.5C17,7.636,16.95,7.753,16.852,7.852z"/>
	<path fill="#A0A1A2" d="M19.68,10.68l0.711,0.711c0.516-0.516,0.91-1.11,1.184-1.785c0.273-0.674,0.41-1.376,0.41-2.105
		c0-0.391-0.04-0.774-0.121-1.152C21.782,5.97,21.661,5.604,21.5,5.25l-0.906,0.406C20.864,6.255,21,6.878,21,7.523
		c0,0.599-0.114,1.169-0.344,1.711C20.427,9.776,20.102,10.258,19.68,10.68z"/>
	<path fill="#A0A1A2" d="M23.73,5.512c-0.18-0.638-0.433-1.235-0.758-1.793c-0.325-0.557-0.716-1.063-1.172-1.52
		c-0.456-0.456-0.962-0.846-1.52-1.172c-0.558-0.325-1.155-0.578-1.793-0.758S17.188,0,16.5,0s-1.351,0.09-1.988,0.27
		s-1.235,0.433-1.793,0.758c-0.558,0.326-1.063,0.716-1.52,1.172c-0.456,0.456-0.847,0.962-1.172,1.52
		C9.702,4.276,9.449,4.874,9.27,5.512C9.134,5.992,9.067,6.491,9.033,7h1c0.032-0.419,0.089-0.831,0.201-1.227
		c0.156-0.552,0.375-1.069,0.656-1.551c0.281-0.481,0.62-0.92,1.016-1.316s0.835-0.734,1.316-1.016s0.999-0.5,1.551-0.656
		S15.901,1,16.5,1c0.599,0,1.175,0.078,1.727,0.234s1.069,0.375,1.551,0.656s0.921,0.62,1.316,1.016
		c0.396,0.396,0.734,0.835,1.016,1.316c0.281,0.482,0.5,0.999,0.656,1.551C22.922,6.326,23,6.901,23,7.5s-0.078,1.175-0.234,1.727
		s-0.375,1.069-0.656,1.551c-0.281,0.482-0.62,0.921-1.016,1.316c-0.396,0.396-0.835,0.734-1.316,1.016s-0.999,0.5-1.551,0.656
		S17.099,14,16.5,14s-1.175-0.078-1.727-0.234s-1.069-0.375-1.551-0.656c-0.445-0.26-0.851-0.575-1.223-0.933v0.53l0.712,1.262
		c0.002,0.001,0.004,0.003,0.006,0.004c0.558,0.326,1.155,0.578,1.793,0.758S15.812,15,16.5,15s1.351-0.09,1.988-0.27
		s1.235-0.432,1.793-0.758c0.558-0.325,1.063-0.716,1.52-1.172c0.456-0.456,0.847-0.962,1.172-1.52
		c0.325-0.557,0.578-1.155,0.758-1.793C23.91,8.851,24,8.188,24,7.5S23.91,6.15,23.73,5.512z"/>
	<path fill="#A0A1A2" d="M12,10.651c0.182,0.259,0.379,0.51,0.609,0.74l0.711-0.711c-0.211-0.211-0.397-0.437-0.56-0.68H12V10.651z"
		/>
	<path fill="#A0A1A2" d="M16.5,2.016c-0.511,0-1,0.065-1.469,0.195c-0.469,0.13-0.906,0.314-1.312,0.551s-0.776,0.522-1.109,0.855
		s-0.62,0.703-0.859,1.109s-0.425,0.844-0.555,1.312C11.109,6.35,11.062,6.673,11.033,7H12h0.033
		c0.026-0.235,0.064-0.466,0.127-0.691c0.106-0.383,0.258-0.741,0.453-1.074c0.195-0.333,0.429-0.637,0.699-0.91
		s0.573-0.509,0.906-0.707s0.69-0.35,1.07-0.457C15.669,3.054,16.065,3,16.477,3c0.646,0,1.269,0.136,1.867,0.406L18.75,2.5
		c-0.354-0.161-0.72-0.282-1.098-0.363C17.274,2.056,16.891,2.016,16.5,2.016z"/>
</g>
<path fill="#59B4D9" d="M12,8H5v1h1v3.969l-5.28,9.255C0.144,23.184,0.624,24,1.728,24h13.488c1.152,0,1.584-0.768,1.008-1.776
	L11,12.969V9h1V8L12,8z"/>
<path fill="#0072C6" d="M12.127,17H4.851l-3.263,5.72c-0.072,0.12-0.098,0.201-0.108,0.246C1.523,22.981,1.601,23,1.728,23h13.488
	c0.114,0,0.196-0.012,0.25-0.025c-0.015-0.058-0.047-0.143-0.11-0.254L12.127,17z"/>
<path opacity="0.25" fill="#ECF0F1" enable-background="new    " d="M5,9h1v3.969l-5.28,9.255C0.144,23.184,0.624,24,1.728,24h1.454
	L7,17l2-3.667V8H5V9z"/>
<path opacity="0.25" fill="#ECF0F1" enable-background="new    " d="M3.727,23L7,17H4.851l-3.263,5.72
	c-0.072,0.12-0.098,0.201-0.108,0.246C1.523,22.981,1.601,23,1.728,23H3.727z"/>
</svg>

<?xml version="1.0" encoding="UTF-8" standalone="no"?>
<svg
   xmlns:dc="http://purl.org/dc/elements/1.1/"
   xmlns:cc="http://creativecommons.org/ns#"
   xmlns:rdf="http://www.w3.org/1999/02/22-rdf-syntax-ns#"
   xmlns:svg="http://www.w3.org/2000/svg"
   xmlns="http://www.w3.org/2000/svg"
   xmlns:sodipodi="http://sodipodi.sourceforge.net/DTD/sodipodi-0.dtd"
   xmlns:inkscape="http://www.inkscape.org/namespaces/inkscape"
   version="1.1"
   id="Layer_1"
   x="0px"
   y="0px"
   width="23.525227"
   height="24"
   viewBox="0 0 23.525227 24"
   enable-background="new 0 0 24 24"
   xml:space="preserve"
   sodipodi:docname="MachineLearningServicePlans.svg"
   inkscape:version="0.92.3 (2405546, 2018-03-11)"><metadata
   id="metadata5987"><rdf:RDF><cc:Work
       rdf:about=""><dc:format>image/svg+xml</dc:format><dc:type
         rdf:resource="http://purl.org/dc/dcmitype/StillImage" /><dc:title></dc:title></cc:Work></rdf:RDF></metadata><defs
   id="defs5985" /><sodipodi:namedview
   pagecolor="#ffffff"
   bordercolor="#666666"
   borderopacity="1"
   objecttolerance="10"
   gridtolerance="10"
   guidetolerance="10"
   inkscape:pageopacity="0"
   inkscape:pageshadow="2"
   inkscape:window-width="1920"
   inkscape:window-height="1017"
   id="namedview5983"
   showgrid="false"
   fit-margin-top="0"
   fit-margin-left="0"
   fit-margin-right="0"
   fit-margin-bottom="0"
   inkscape:zoom="35.416667"
   inkscape:cx="11.525227"
   inkscape:cy="12"
   inkscape:window-x="1912"
   inkscape:window-y="-8"
   inkscape:window-maximized="1"
   inkscape:current-layer="Layer_1" />
<g
   id="g5972"
   transform="translate(-0.47477273)">
	<path
   d="m 17.148,6.148 0.008,0.008 C 16.948,6.052 16.729,6 16.5,6 16.292,6 16.097,6.039 15.914,6.117 15.731,6.195 15.573,6.302 15.437,6.437 15.301,6.573 15.195,6.731 15.117,6.914 15.039,7.097 15,7.292 15,7.5 c 0,0.208 0.039,0.404 0.117,0.586 0.078,0.183 0.185,0.341 0.32,0.477 0.136,0.136 0.294,0.242 0.477,0.32 C 16.097,8.961 16.292,9 16.5,9 16.708,9 16.903,8.961 17.086,8.883 17.269,8.805 17.427,8.698 17.563,8.563 17.699,8.428 17.805,8.269 17.883,8.086 17.961,7.904 18,7.708 18,7.5 18,7.271 17.948,7.052 17.844,6.844 L 17.852,6.852 20.727,3.977 20.024,3.274 Z M 16.852,7.852 C 16.753,7.951 16.636,8 16.5,8 16.364,8 16.247,7.951 16.148,7.852 16.05,7.753 16,7.636 16,7.5 16,7.365 16.05,7.248 16.148,7.148 16.247,7.05 16.364,7 16.5,7 16.636,7 16.753,7.05 16.852,7.148 16.95,7.248 17,7.365 17,7.5 17,7.636 16.95,7.753 16.852,7.852 Z"
   id="path5962"
   inkscape:connector-curvature="0"
   style="fill:#a0a1a2" />
	<path
   d="m 19.68,10.68 0.711,0.711 c 0.516,-0.516 0.91,-1.11 1.184,-1.785 0.273,-0.674 0.41,-1.376 0.41,-2.105 0,-0.391 -0.04,-0.774 -0.121,-1.152 C 21.782,5.97 21.661,5.604 21.5,5.25 L 20.594,5.656 C 20.864,6.255 21,6.878 21,7.523 21,8.122 20.886,8.692 20.656,9.234 20.427,9.776 20.102,10.258 19.68,10.68 Z"
   id="path5964"
   inkscape:connector-curvature="0"
   style="fill:#a0a1a2" />
	<path
   d="M 23.73,5.512 C 23.55,4.874 23.297,4.277 22.972,3.719 22.647,3.162 22.256,2.656 21.8,2.199 21.344,1.743 20.838,1.353 20.28,1.027 19.722,0.702 19.125,0.449 18.487,0.269 17.849,0.089 17.188,0 16.5,0 15.812,0 15.149,0.09 14.512,0.27 13.875,0.45 13.277,0.703 12.719,1.028 12.161,1.354 11.656,1.744 11.199,2.2 10.743,2.656 10.352,3.162 10.027,3.72 9.702,4.276 9.449,4.874 9.27,5.512 9.134,5.992 9.067,6.491 9.033,7 h 1 C 10.065,6.581 10.122,6.169 10.234,5.773 10.39,5.221 10.609,4.704 10.89,4.222 11.171,3.741 11.51,3.302 11.906,2.906 12.302,2.51 12.741,2.172 13.222,1.89 13.703,1.608 14.221,1.39 14.773,1.234 15.325,1.078 15.901,1 16.5,1 c 0.599,0 1.175,0.078 1.727,0.234 0.552,0.156 1.069,0.375 1.551,0.656 0.482,0.281 0.921,0.62 1.316,1.016 0.396,0.396 0.734,0.835 1.016,1.316 0.281,0.482 0.5,0.999 0.656,1.551 C 22.922,6.326 23,6.901 23,7.5 c 0,0.599 -0.078,1.175 -0.234,1.727 -0.156,0.552 -0.375,1.069 -0.656,1.551 -0.281,0.482 -0.62,0.921 -1.016,1.316 -0.396,0.396 -0.835,0.734 -1.316,1.016 -0.481,0.282 -0.999,0.5 -1.551,0.656 C 17.675,13.922 17.099,14 16.5,14 15.901,14 15.325,13.922 14.773,13.766 14.221,13.61 13.704,13.391 13.222,13.11 12.777,12.85 12.371,12.535 11.999,12.177 v 0.53 l 0.712,1.262 c 0.002,0.001 0.004,0.003 0.006,0.004 0.558,0.326 1.155,0.578 1.793,0.758 0.638,0.18 1.302,0.269 1.99,0.269 0.688,0 1.351,-0.09 1.988,-0.27 0.637,-0.18 1.235,-0.432 1.793,-0.758 0.558,-0.325 1.063,-0.716 1.52,-1.172 0.456,-0.456 0.847,-0.962 1.172,-1.52 0.325,-0.557 0.578,-1.155 0.758,-1.793 C 23.91,8.851 24,8.188 24,7.5 24,6.812 23.91,6.15 23.73,5.512 Z"
   id="path5966"
   inkscape:connector-curvature="0"
   style="fill:#a0a1a2" />
	<path
   d="m 12,10.651 c 0.182,0.259 0.379,0.51 0.609,0.74 L 13.32,10.68 C 13.109,10.469 12.923,10.243 12.76,10 H 12 Z"
   id="path5968"
   inkscape:connector-curvature="0"
   style="fill:#a0a1a2" />
	<path
   d="m 16.5,2.016 c -0.511,0 -1,0.065 -1.469,0.195 -0.469,0.13 -0.906,0.314 -1.312,0.551 C 13.313,2.999 12.943,3.284 12.61,3.617 12.277,3.95 11.99,4.32 11.751,4.726 11.512,5.132 11.326,5.57 11.196,6.038 11.109,6.35 11.062,6.673 11.033,7 H 12 12.033 c 0.026,-0.235 0.064,-0.466 0.127,-0.691 0.106,-0.383 0.258,-0.741 0.453,-1.074 0.195,-0.333 0.429,-0.637 0.699,-0.91 0.27,-0.273 0.573,-0.509 0.906,-0.707 0.333,-0.198 0.69,-0.35 1.07,-0.457 C 15.669,3.054 16.065,3 16.477,3 c 0.646,0 1.269,0.136 1.867,0.406 L 18.75,2.5 C 18.396,2.339 18.03,2.218 17.652,2.137 17.274,2.056 16.891,2.016 16.5,2.016 Z"
   id="path5970"
   inkscape:connector-curvature="0"
   style="fill:#a0a1a2" />
</g>
<path
   d="M 11.525227,8 H 4.5252273 v 1 h 1 v 3.969 l -5.28000003,9.255 c -0.576,0.96 -0.096,1.776 1.00800003,1.776 H 14.741227 c 1.152,0 1.584,-0.768 1.008,-1.776 l -5.224,-9.255 V 9 h 1 z"
   id="path5974"
   inkscape:connector-curvature="0"
   style="fill:#59b4d9" />
<path
   d="M 11.652227,17 H 4.3762273 l -3.263,5.72 c -0.072,0.12 -0.098,0.201 -0.108,0.246 0.043,0.015 0.121,0.034 0.248,0.034 H 14.741227 c 0.114,0 0.196,-0.012 0.25,-0.025 -0.015,-0.058 -0.047,-0.143 -0.11,-0.254 z"
   id="path5976"
   inkscape:connector-curvature="0"
   style="fill:#0072c6" />
<path
   enable-background="new    "
   d="m 4.5252273,9 h 1 v 3.969 l -5.28000003,9.255 c -0.576,0.96 -0.096,1.776 1.00800003,1.776 h 1.454 l 3.818,-7 2,-3.667 V 8 h -4 z"
   id="path5978"
   inkscape:connector-curvature="0"
   style="opacity:0.25;fill:#ecf0f1" />
<path
   enable-background="new    "
   d="m 3.2522273,23 3.273,-6 h -2.149 l -3.263,5.72 c -0.072,0.12 -0.098,0.201 -0.108,0.246 0.043,0.015 0.121,0.034 0.248,0.034 z"
   id="path5980"
   inkscape:connector-curvature="0"
   style="opacity:0.25;fill:#ecf0f1" />
</svg>
